glitch-avatars-svg/base_avatar/Avatar.fla/placeholder symbols 3/Avatar_sideLegLowerClose3.svg

<?xml version="1.0" encoding="UTF-8" standalone="no"?>
<!-- Generator: flash2svg, http://dissentgraphics.com/tools/flash2svg -->

<svg
   xmlns:dc="http://purl.org/dc/elements/1.1/"
   xmlns:cc="http://creativecommons.org/ns#"
   xmlns:rdf="http://www.w3.org/1999/02/22-rdf-syntax-ns#"
   xmlns:svg="http://www.w3.org/2000/svg"
   xmlns="http://www.w3.org/2000/svg"
   xmlns:sodipodi="http://sodipodi.sourceforge.net/DTD/sodipodi-0.dtd"
   xmlns:inkscape="http://www.inkscape.org/namespaces/inkscape"
   id="Avatar"
   image-rendering="auto"
   version="1.1"
   x="0px"
   y="0px"
   width="9.1499996"
   height="14"
   viewBox="0 0 9.1499996 14"
   inkscape:version="0.48.4 r9939"
   sodipodi:docname="Avatar_sideLegLowerClose3.svg">
  <metadata
     id="metadata3164">
    <rdf:RDF>
      <cc:Work
         rdf:about="">
        <dc:format>image/svg+xml</dc:format>
        <dc:type
           rdf:resource="http://purl.org/dc/dcmitype/StillImage" />
      </cc:Work>
    </rdf:RDF>
  </metadata>
  <sodipodi:namedview
     pagecolor="#ffffff"
     bordercolor="#666666"
     borderopacity="1"
     objecttolerance="10"
     gridtolerance="10"
     guidetolerance="10"
     inkscape:pageopacity="0"
     inkscape:pageshadow="2"
     inkscape:window-width="640"
     inkscape:window-height="480"
     id="namedview3162"
     showgrid="false"
     fit-margin-top="0"
     fit-margin-left="0"
     fit-margin-right="0"
     fit-margin-bottom="0"
     inkscape:zoom="1.8730159"
     inkscape:cx="38.55"
     inkscape:cy="-24.075675"
     inkscape:window-x="0"
     inkscape:window-y="0"
     inkscape:window-maximized="0"
     inkscape:current-layer="Avatar" />
  <defs
     id="defs3146">
    <radialGradient
       gradientUnits="userSpaceOnUse"
       color-interpolation="sRGB"
       r="9.985714"
       cx="1.5"
       cy="0.5"
       fx="1.5"
       fy="0.5"
       gradientTransform="matrix(-0.6579895,0.75340271,0.81536865,0.71250916,2.1,-0.999)"
       id="radialGradient">
      <stop
         stop-color="#FFF"
         stop-opacity="0.7058823529411765"
         offset="0"
         id="stop3149" />
      <stop
         stop-color="#FFF"
         stop-opacity="0.2980392156862745"
         offset="1"
         id="stop3151" />
    </radialGradient>
    <radialGradient
       gradientUnits="userSpaceOnUse"
       color-interpolation="sRGB"
       r="9.9890003"
       cx="3.5999999"
       cy="-0.449"
       fx="3.5999999"
       fy="-0.449"
       gradientTransform="matrix(-0.658,0.753,0.815,0.712,4.2,-1.799)"
       id="radialGradient1">
      <stop
         stop-color="#FFF"
         stop-opacity="0.7058823529411765"
         offset="0"
         id="stop3154" />
      <stop
         stop-color="#FFF"
         stop-opacity="0.2980392156862745"
         offset="1"
         id="stop3156" />
    </radialGradient>
  </defs>
  <g
     id="sideLegLowerClose4"
     overflow="visible"
     style="overflow:visible"
     transform="translate(4.55,3.5)">
    <g
       id="sideLegLowerClose3_0">
      <g
         id="element">
        <path
           id="path"
           d="m 2.975,-3.125 -0.05,-0.05 -0.05,0.05 L 2.9,-3.1 C 2.3,-3.35 1.7,-3.45 1.05,-3.45 L 1,-3.5 0.275,-3.475 0.3,-3.45 c -0.7,0 -1.3,0.05 -1.8,0.2 l -0.025,0 -0.05,-0.025 0,0.025 0.025,0 c -1.85,0.45 -2.85,1.45 -3,2.9 0,0.05 0,0.15 0,0.3 0,0.25 0,0.6 0.05,1.05 0.05,1.25 0.1,2.1 0.05,2.5 -0.05,0.45 -0.1,0.85 -0.1,1.3 0,1.15 0.1,2.15 0.35,3 0.15,0.55 0.35,1 0.65,1.45 l -0.05,0.05 0.15,0.05 0,0.05 c 0.4,0.4 0.8,0.7 1.25,0.85 0.25,0.15 0.5,0.25 0.75,0.25 l 0,-0.05 C -1.3,10.5 -1,10.5 -0.65,10.5 L 0.1,10.45 C 1.15,10.3 2,9.95 2.65,9.45 3.2,9 3.55,8.65 3.7,8.45 3.95,8.15 4.1,7.75 4.2,7.25 l 0,-0.075 0,0.05 0,-0.025 C 4.3,6.55 4.35,5.25 4.4,3.3 l 0,-0.55 C 4.4,2.4 4.45,1.75 4.55,0.8 4.6,0.45 4.6,0.2 4.6,0 c 0,-0.25 0,-0.45 -0.05,-0.6 l 0,-0.025 0.05,-0.1 L 4.5,-0.75 C 4.45,-1.1 4.3,-1.55 4.05,-2.2 3.9,-2.55 3.55,-2.85 3,-3.1 m -2.65,1.7 c -0.65,0.05 -1.4,0.2 -2.2,0.4 0.05,-0.8 0.2,-1.5 0.45,-2.05 l -0.025,0 2.275,-0.2 c 0.25,0.45 0.45,1.05 0.6,1.9 L 1.425,-1.375 0.35,-1.4 z m 1.075,0.275 0.1,1.175 0.025,0 C 1.5,0.8 1.5,1.45 1.55,2.1 l -0.025,0 -0.9,0.025 0.025,0.025 c -0.8,0 -1.6,0.1 -2.4,0.25 l -0.025,0 -0.075,-3.125 0,0.025 c 0.75,-0.25 1.45,-0.4 2.2,-0.45 l 1.075,0.025 z M 3.25,-1.15 C 2.75,-1.3 2.25,-1.35 1.7,-1.35 1.55,-2.2 1.4,-2.85 1.15,-3.2 c 0.55,0 1.1,0.1 1.65,0.3 0.2,0.45 0.35,1 0.45,1.75 z M 4.3,-0.6 c 0.05,0.3 0.05,0.75 0,1.4 L 4.3,0.775 4.15,2.3 3.7,2.275 3.55,-0.85 4.3,-0.6 z m -0.05,-0.3 -0.7,-0.225 0,0.025 C 3.4,-1.85 3.3,-2.4 3.15,-2.75 3.5,-2.6 3.7,-2.35 3.8,-2.1 l 0,-0.025 0.45,1.225 z M 3.3,-0.875 3.45,2.225 1.75,2.1 C 1.7,1.45 1.75,0.75 1.8,0.1 l -0.025,-0.025 -0.1,-1.225 0.025,0 c 0.85,0.1 1.4,0.2 1.6,0.3 z M 4.15,2.55 4.1,5.425 3.7,5.575 3.7,2.525 4.15,2.55 z M 1.5,2.35 1.6,6 -1.5,6.225 -1.75,2.65 C -0.9,2.5 -0.1,2.4 0.65,2.4 L 0.625,2.375 1.5,2.35 z m 2.55,3.325 -0.1,1.45 -0.4,0.325 0.1,-1.625 0.4,-0.15 z m -2.3,-3.325 1.7,0.125 0,3.15 -1.6,0.325 -0.1,-3.6 z M 2.85,8.9 C 2.6,9.15 2.2,9.3 1.65,9.45 L 1.625,9.425 1.825,8.35 1.85,8.35 C 2.5,8.2 2.95,8.05 3.2,7.9 3.15,8.35 3.05,8.7 2.85,8.9 z M 3.275,8.5 3.5,7.75 3.85,7.55 C 3.75,7.9 3.55,8.25 3.3,8.5 z M 0.3,8.3 c -0.55,0.05 -1,0.05 -1.4,0 -0.15,-0.4 -0.25,-1 -0.35,-1.8 l 0,-0.025 0.35,0 2.675,-0.225 0,1.9 -1.3,0.125 z M 1.825,6.2 3.4,5.875 3.4,5.9 C 3.4,6.55 3.35,7.1 3.25,7.6 3,7.75 2.55,7.95 1.85,8.1 l -0.025,0 0,-1.9 z m -0.8,3.75 0.05,0 0.025,0 c -0.45,0.15 -0.75,0.2 -1,0.25 L -0.325,9.9 0,9.9 1.125,9.775 1.025,9.95 z m -1,-0.325 -0.25,0 -0.3,-0.05 L -0.5,9.6 C -0.75,9.3 -0.9,8.95 -1,8.55 l -0.025,-0.025 0.7,0.05 1.9,-0.15 L 1.6,8.45 C 1.55,8.85 1.45,9.2 1.3,9.5 0.95,9.6 0.55,9.65 0.05,9.65 z M -3.25,-1.8 c 0.15,-0.4 0.25,-0.6 0.3,-0.55 0.3,-0.25 0.7,-0.45 1.25,-0.6 -0.2,0.45 -0.3,1.1 -0.35,2.05 -0.3,0.1 -0.85,0.3 -1.6,0.65 0.05,-0.55 0.15,-1.05 0.4,-1.55 z M -3.4,-2.05 c -0.25,0.65 -0.4,1.3 -0.45,1.95 l -0.025,0 -0.45,0.35 0.025,0 C -4.35,0 -4.35,-0.2 -4.3,-0.35 -4.25,-1 -3.95,-1.6 -3.4,-2.05 z m 1.3,2 c 0,0.85 0.05,1.65 0.15,2.45 l -0.025,0 -1.575,0.425 0,0.025 c 0,-0.75 -0.05,-1.4 -0.1,-2.05 l 0,-0.025 0,-0.725 1.575,-0.725 -0.025,0.6 z M -3.9,0.2 -3.8,2.925 -4.225,3.075 -4.325,0.5 -3.9,0.2 z M -4.225,3.325 -3.8,3.175 -3.65,6.1 -4.275,6 -4.25,6 C -4.3,4.95 -4.3,4.15 -4.2,3.5 l -0.025,-0.025 0,-0.15 z m 0.675,-0.25 1.575,-0.425 0.25,3.575 -1.675,-0.15 -0.15,-3 z M -1.35,8.3 C -2.2,8.2 -2.8,8.1 -3.15,7.95 L -3.175,7.925 -3.4,6.375 l 0,-0.05 1.7,0.15 0,0.025 c 0.05,0.7 0.2,1.3 0.35,1.8 z m -2.3,-1.875 0.225,1.45 -0.6,-0.25 L -4,7.65 C -4.05,7.55 -4.1,7.1 -4.25,6.25 l -0.025,0 0.625,0.075 0,0.1 z M -3.3,9.15 c -0.25,-0.3 -0.45,-0.7 -0.6,-1.2 l -0.025,-0.025 0.55,0.2 0.375,1.1 -0.3,-0.1 z m 2.65,1.1 c -0.5,0 -1,-0.1 -1.45,-0.25 l -0.025,0 -0.35,-0.35 0.025,0 c 0.35,0.05 0.95,0.15 1.8,0.2 l -0.025,0 0.325,0.4 -0.3,0 z m -2.45,-2 c 0.75,0.15 1.35,0.25 1.8,0.3 0.15,0.45 0.35,0.8 0.5,1.05 L -0.825,9.575 -2.675,9.325 -2.65,9.35 C -2.85,9 -3,8.6 -3.1,8.25 z"
           inkscape:connector-curvature="0"
           style="fill:url(#radialGradient1)" />
      </g>
    </g>
  </g>
</svg>

<?xml version="1.0" encoding="utf-8"?>
<!-- Generator: flash2svg, http://dissentgraphics.com/tools/flash2svg -->
<svg xmlns:xlink="http://www.w3.org/1999/xlink" id="Avatar" image-rendering="auto" baseProfile="basic" version="1.1" x="0px" y="0px" width="68" height="126" xmlns="http://www.w3.org/2000/svg" viewBox="0 0 68 126">
  <defs>
    <radialGradient gradientUnits="userSpaceOnUse" color-interpolation="sRGB" r="9.985713725368829" cx="1.5" cy="0.5" fx="1.5" fy="0.5" gradientTransform="matrix(-0.657989501953125 0.7534027099609375 0.81536865234375 0.7125091552734375 2.1 -0.999)" id="radialGradient">
      <stop stop-color="#FFF" stop-opacity="0.7058823529411765" offset="0"/>
      <stop stop-color="#FFF" stop-opacity="0.2980392156862745" offset="1"/>
    </radialGradient>
    <radialGradient gradientUnits="userSpaceOnUse" color-interpolation="sRGB" r="9.989" cx="3.6" cy="-0.449" fx="3.6" fy="-0.449" gradientTransform="matrix(-0.658 0.753 0.815 0.712 4.2 -1.799)" id="radialGradient1">
      <stop stop-color="#FFF" stop-opacity="0.7058823529411765" offset="0"/>
      <stop stop-color="#FFF" stop-opacity="0.2980392156862745" offset="1"/>
    </radialGradient>
  </defs>
  <g id="sideLegLowerClose4" overflow="visible">
    <g id="sideLegLowerClose3_0">
      <g id="element">
        <path id="path" fill="url(#radialGradient1)" d="M2.975,-3.125 L2.925,-3.175 2.875,-3.125 L2.9,-3.1 C2.3,-3.35 1.7,-3.45 1.05,-3.45 L1,-3.5 0.275,-3.475 L0.3,-3.45 C-0.4,-3.45 -1,-3.4 -1.5,-3.25 L-1.525,-3.25 L-1.575,-3.275 -1.575,-3.25 L-1.55,-3.25 C-3.4,-2.8 -4.4,-1.8 -4.55,-0.35 -4.55,-0.3 -4.55,-0.2 -4.55,-0.05 -4.55,0.2 -4.55,0.55 -4.5,1 -4.45,2.25 -4.4,3.1 -4.45,3.5 -4.5,3.95 -4.55,4.35 -4.55,4.8 -4.55,5.95 -4.45,6.95 -4.2,7.8 -4.05,8.35 -3.85,8.8 -3.55,9.25 L-3.6,9.3 -3.45,9.35 -3.45,9.4 C-3.05,9.8 -2.65,10.1 -2.2,10.25 -1.95,10.4 -1.7,10.5 -1.45,10.5 L-1.45,10.45 C-1.3,10.5 -1,10.5 -0.65,10.5 L0.1,10.45 C1.15,10.3 2,9.95 2.65,9.45 3.2,9 3.55,8.65 3.7,8.45 3.95,8.15 4.1,7.75 4.2,7.25 L4.2,7.175 L4.2,7.225 L4.2,7.2 C4.3,6.55 4.35,5.25 4.4,3.3 L4.4,2.75 C4.4,2.4 4.45,1.75 4.55,0.8 4.6,0.45 4.6,0.2 4.6,0 4.6,-0.25 4.6,-0.45 4.55,-0.6 L4.55,-0.625 L4.6,-0.725 4.5,-0.75 C4.45,-1.1 4.3,-1.55 4.05,-2.2 3.9,-2.55 3.55,-2.85 3,-3.1 M0.35,-1.4 C-0.3,-1.35 -1.05,-1.2 -1.85,-1 -1.8,-1.8 -1.65,-2.5 -1.4,-3.05 L-1.425,-3.05 L0.85,-3.25 C1.1,-2.8 1.3,-2.2 1.45,-1.35 L1.425,-1.375 L0.35,-1.4z M1.425,-1.125 L1.525,0.05 L1.55,0.05 C1.5,0.8 1.5,1.45 1.55,2.1 L1.525,2.1 L0.625,2.125 L0.65,2.15 C-0.15,2.15 -0.95,2.25 -1.75,2.4 L-1.775,2.4 L-1.85,-0.725 L-1.85,-0.7 C-1.1,-0.95 -0.4,-1.1 0.35,-1.15 L1.425,-1.125z M3.25,-1.15 C2.75,-1.3 2.25,-1.35 1.7,-1.35 1.55,-2.2 1.4,-2.85 1.15,-3.2 1.7,-3.2 2.25,-3.1 2.8,-2.9 3,-2.45 3.15,-1.9 3.25,-1.15z M4.3,-0.6 C4.35,-0.3 4.35,0.15 4.3,0.8 L4.3,0.775 L4.15,2.3 3.7,2.275 3.55,-0.85 4.3,-0.6z M4.25,-0.9 L3.55,-1.125 L3.55,-1.1 C3.4,-1.85 3.3,-2.4 3.15,-2.75 3.5,-2.6 3.7,-2.35 3.8,-2.1 L3.8,-2.125 L4.25,-0.9z M3.3,-0.875 L3.45,2.225 1.75,2.1 C1.7,1.45 1.75,0.75 1.8,0.1 L1.775,0.075 L1.675,-1.15 L1.7,-1.15 C2.55,-1.05 3.1,-0.95 3.3,-0.85z M4.15,2.55 L4.1,5.425 3.7,5.575 3.7,2.525 4.15,2.55z M1.5,2.35 L1.6,6 -1.5,6.225 -1.75,2.65 C-0.9,2.5 -0.1,2.4 0.65,2.4 L0.625,2.375 L1.5,2.35z M4.05,5.675 L3.95,7.125 3.55,7.45 3.65,5.825 4.05,5.675z M1.75,2.35 L3.45,2.475 3.45,5.625 1.85,5.95 1.75,2.35z M2.85,8.9 C2.6,9.15 2.2,9.3 1.65,9.45 L1.625,9.425 L1.825,8.35 L1.85,8.35 C2.5,8.2 2.95,8.05 3.2,7.9 3.15,8.35 3.05,8.7 2.85,8.9z M3.275,8.5 L3.5,7.75 3.85,7.55 C3.75,7.9 3.55,8.25 3.3,8.5z M0.3,8.3 C-0.25,8.35 -0.7,8.35 -1.1,8.3 -1.25,7.9 -1.35,7.3 -1.45,6.5 L-1.45,6.475 L-1.1,6.475 1.575,6.25 1.575,8.15 0.275,8.275z M1.825,6.2 L3.4,5.875 L3.4,5.9 C3.4,6.55 3.35,7.1 3.25,7.6 3,7.75 2.55,7.95 1.85,8.1 L1.825,8.1 L1.825,6.2z M1.025,9.95 L1.075,9.95 L1.1,9.95 C0.65,10.1 0.35,10.15 0.1,10.2 L-0.325,9.9 0,9.9 1.125,9.775 1.025,9.95z M0.025,9.625 L-0.225,9.625 -0.525,9.575 L-0.5,9.6 C-0.75,9.3 -0.9,8.95 -1,8.55 L-1.025,8.525 L-0.325,8.575 1.575,8.425 L1.6,8.45 C1.55,8.85 1.45,9.2 1.3,9.5 0.95,9.6 0.55,9.65 0.05,9.65z M-3.25,-1.8 C-3.1,-2.2 -3,-2.4 -2.95,-2.35 -2.65,-2.6 -2.25,-2.8 -1.7,-2.95 -1.9,-2.5 -2,-1.85 -2.05,-0.9 -2.35,-0.8 -2.9,-0.6 -3.65,-0.25 -3.6,-0.8 -3.5,-1.3 -3.25,-1.8z M-3.4,-2.05 C-3.65,-1.4 -3.8,-0.75 -3.85,-0.1 L-3.875,-0.1 L-4.325,0.25 L-4.3,0.25 C-4.35,0 -4.35,-0.2 -4.3,-0.35 -4.25,-1 -3.95,-1.6 -3.4,-2.05z M-2.1,-0.05 C-2.1,0.8 -2.05,1.6 -1.95,2.4 L-1.975,2.4 L-3.55,2.825 L-3.55,2.85 C-3.55,2.1 -3.6,1.45 -3.65,0.8 L-3.65,0.775 L-3.65,0.05 -2.075,-0.675 -2.1,-0.075z M-3.9,0.2 L-3.8,2.925 -4.225,3.075 -4.325,0.5 -3.9,0.2z M-4.225,3.325 L-3.8,3.175 -3.65,6.1 -4.275,6 L-4.25,6 C-4.3,4.95 -4.3,4.15 -4.2,3.5 L-4.225,3.475 L-4.225,3.325z M-3.55,3.075 L-1.975,2.65 -1.725,6.225 -3.4,6.075 -3.55,3.075z M-1.35,8.3 C-2.2,8.2 -2.8,8.1 -3.15,7.95 L-3.175,7.925 L-3.4,6.375 -3.4,6.325 -1.7,6.475 L-1.7,6.5 C-1.65,7.2 -1.5,7.8 -1.35,8.3z M-3.65,6.425 L-3.425,7.875 -4.025,7.625 L-4,7.65 C-4.05,7.55 -4.1,7.1 -4.25,6.25 L-4.275,6.25 L-3.65,6.325 -3.65,6.425z M-3.3,9.15 C-3.55,8.85 -3.75,8.45 -3.9,7.95 L-3.925,7.925 L-3.375,8.125 -3,9.225 -3.3,9.125z M-0.65,10.25 C-1.15,10.25 -1.65,10.15 -2.1,10 L-2.125,10 L-2.475,9.65 L-2.45,9.65 C-2.1,9.7 -1.5,9.8 -0.65,9.85 L-0.675,9.85 L-0.35,10.25 -0.65,10.25z M-3.1,8.25 C-2.35,8.4 -1.75,8.5 -1.3,8.55 -1.15,9 -0.95,9.35 -0.8,9.6 L-0.825,9.575 L-2.675,9.325 L-2.65,9.35 C-2.85,9 -3,8.6 -3.1,8.25z"/>
      </g>
    </g>
  </g>
</svg>
